X: 3
T: Roslyn Castle
R: reel
M: 4/4
L: 1/8
K: Dmin
|: Em | C B | Em | B Em | C | Em B | Em | Em :||: Em | Em B | Em | Em B | C B | Em B | Em | Em :|


Tune 4150	Setting 28665

